X:1655
T:Engelska 2
D:Filarfolket `Birfilar Musik frn Malm'
M:4/4
N:from the playing of Gisen Malmqvist.
O:Sweden
R:Engelska
Z:Richard Robinson 
%%TUNEURL: http://www.leeds.ac.uk/music/Info/RRTuneBk/gettune/00000c57.html
%%ID:00000c57
K:Bb
f2|\
bfdB F2b2 | geBG E2 g2 | fecA FAcA | B2 dc B2 ::
K:F
AB |\
c2f2 a2fa | gbeg faAB | c2f2 a2fa | gbeg f2 :|
